!!!!SEGMENT: pl-wtm--r-1469_stefani-jozef--brzydko-kiedy-chlop-pije.krn
!!!cenid: 18xx:2218
!!!COM: Stefani, Józef
!!!COM-rismID: pe30024097
!!!CDT: 1800/04/16-1876/03/19
!!!CNT: Polish
!!!OTL: Brzydko, kiedy chłop pije
!!!PDT:
!!!AGN:
!!!YEC: Copyright 2022 Narodowy Instytut Fryderyka Chopina (https://polishscores.org)
!!!YEM: License CC-BY-4.0 (https://creativecommons.org/licenses/by/4.0)
!!!SMS-siglum: PL-Wtm
!!!SMS-shelfmark: R 1469
!!!SMS-shelfwork: W
!!!SMS-variant:
!!!SMS-altvar:
!!!NIFC-rismSourceID: 1001121142
!!!NIFC-rismChildID: 1001121142
!!!NIFC-islandoraID: pl-wtm:25945
!!!URL-pdf-islandora: https://repozytorium.nifc.pl/islandora/object/pl-wtm%3A25945/datastream/PDF/view
!!!URL-scan: https://polish.musicsources.pl/pl/lokalizacje/galeria/rekopisy/6283 @EN{Scan on Polish Music Sources Website} @PL{Skany w portalu Dziedzictwo Muzyki Polskiej w otwartym dostępie}
!!!IIIF:
!!!ONB-nifc:
!!!OMD: Tempo alla Mazurek.
!!!AIN: 2 empty
!!!key:
**kern	**kern	**dynam	**kern	**text	**dynam
*part2	*part2	*	*part1	*	*
*staff3	*staff2	*	*staff1	*	*
*Iempty	*Iforte	*	*Iempty	*	*
*	*I"Fortepian	*	*I"Śpiew	*	*
*clefF4	*clefG2	*	*clefG2	*	*
*k[b-]	*k[b-]	*	*k[b-]	*	*
*F:	*F:	*	*F:	*	*
*M3/4	*M3/4	*	*M3/4	*	*
*all\right	*all\right	*	*all\right	*	*
=1	=1	=1	=1	=1	=1
!	!	!LO:DY:rj	!	!	!
4F 4FF/	8.cccL 8.aa 8.cc\	ff	2.r	.	.
.	16bb-Jk 16gg 16b-\	.	.	.	.
4F 4FF/	4aa 4ff 4a\	.	.	.	.
4C 4CC/	4gg 4ee 4cc\	.	.	.	.
=2	=2	=2	=2	=2	=2
4F 4FF/	8.ffL 8.cc 8.a\	.	2.r	.	.
.	16aaJk 16ff 16cc\	.	.	.	.
4c 4C\	4gg 4ee 4cc\	.	.	.	.
4c 4C\	4cc\	.	.	.	.
=3	=3	=3	=3	=3	=3
4F 4FF/	8.ffL 8.cc 8.a\	.	2.r	.	.
.	16aaJk 16ff 16cc\	.	.	.	.
4c 4C\	4gg 4ee 4cc\	.	.	.	.
4c 4C\	4cc\	.	.	.	.
=4	=4	=4	=4	=4	=4
4F 4FF/	8.ffL 8.cc 8.a\	.	2.r	.	.
.	16aaJk 16ff 16cc\	.	.	.	.
4C 4CC/	4ccc 4ee 4cc\	.	.	.	.
4r	4r	.	.	.	.
!!LO:LB:g=original
=5	=5	=5	=5	=5	=5
!	!	!LO:DY:rj	!	!	!
4G 4GG/	8.dddL 8.bb-\	p	2.r	.	.
.	16cccJk 16aa\	.	.	.	.
4G 4GG/	4bb- 4gg\	.	.	.	.
4d 4D\	4aa 4ff#X\	.	.	.	.
=6	=6	=6	=6	=6	=6
4d 4B- 4G\	8.gg\L	.	2.r	.	.
.	16bb-\Jk	.	.	.	.
4d 4A 4F#X 4D\	4aa\	.	.	.	.
4d 4A 4F# 4D\	4dd\	.	.	.	.
=7	=7	=7	=7	=7	=7
4d 4B- 4G\	8.gg\L	.	2.r	.	.
.	16bb-\Jk	.	.	.	.
4d 4A 4F#X 4D\	4aa\	.	.	.	.
4d 4A 4F# 4D\	4dd\	.	.	.	.
=8	=8	=8	=8	=8	=8
4d 4B- 4G\	8.gg\L	.	2.r;	.	.
.	16bb-\Jk	.	.	.	.
4c 4G 4C\	4ee 4b- 4g/	.	.	.	.
!	!LO:TX:b:t=V&colon;S&colon;	!	!	!	!
4r;	4r;	.	.	.	.
!!LO:PB:g=original
=9||	=9||	=9||	=9||	=9||	=9||
!	!	!LO:DY:rj	!	!	!
4F 4FF/	8.ccL 8.a/	p	8.cc\	Ej!	.
.	16b-Jk 16g/	.	16b-\	wy	.
4F 4FF/	4a 4f/	.	4a/	mło-	.
4c 4C\	4g 4e/	.	4g/	-de	.
=10	=10	=10	=10	=10	=10
4c 4A 4F\	8.f/L	.	8.f/	Ko-	.
.	16a/Jk	.	16a/	-bie-	.
4c 4G 4E 4C\	4g/	.	4g/	-tecz-	.
4G 4E 4C\	4c/	.	4c/	-ki	.
=11	=11	=11	=11	=11	=11
4F 4FF/	8.f/L	.	8.f/	Nie	.
!	!	!	!	!	!LO:HP:a
.	16a/Jk	.	16a/	pi-	<
4c 4A 4F\	4cc\	.	4cc\	-jai-	.
4c 4A 4F\	4a/	.	4a'/	-cie	[[
=12	=12	=12	=12	=12	=12
!	!	!	!	!	!LO:HP:a
.	.	.	8qa/	.	>
4B- 4BB-\	8.ffL 8.dd\	.	8.ff\	go-	.
.	16ddJk 16b-\	.	16dd\	-rza-	.
4c 4F\	4cc 4a\	.	4cc\	-łecz-	]
4c 4F\	4a 4f/	.	4a/	-ki	.
!!LO:LB:g=original
=13	=13	=13	=13	=13	=13
4C/	8.gL 8.e/	.	8.g/	Bo	.
.	16aJk 16f/	.	16a/	naj-	.
4c\	4g 4e/	.	4g/	-brzyd-	.
4c\	4cc 4e/	.	4cc\	-sze	.
=14	=14	=14	=14	=14	=14
8C/	8ee 8g\	.	8ee\	w_świe-	.
8r	8r	.	8r	.	.
*2\right	*	*	*2\right	*	*
2c\	2cc 2e/	.	2cc\	-cie	.
=15	=15	=15	=15	=15	=15
*^	*	*	*	*	*
4r	2.G\	8.dd\L	.	8.dd\	Pi-	.
.	.	16cc#X\Jk	.	16cc#X\	-ian-	.
4f 4Bn/	.	4dd\	.	4dd\	-stwo	.
4f 4B/	.	4g/	.	4g/	w_Ko-	.
*v	*v	*	*	*	*	*
=16	=16	=16	=16	=16	=16
!LO:SIC:v:n=2:o=8f 8B- 8G\	!	!	!	!	!
8Bn	8dd\	.	8dd\	-bie-	.
8r	8r	.	8r	.	.
*	*2\right	*	*	*	*
2e 2c\	2cc\	.	2cc\	-cie,	.
.	.	f	.	.	.
=17	=17	=17	=17	=17	=17
*^	*	*	*	*	*
4r	2.C\	8.ggL 8.ee\	.	2.r	.	.
.	.	16aaJk 16ff\	.	.	.	.
4c 4G 4E/	.	4gg 4ee\	.	.	.	.
4c 4G 4E/	.	4ccc 4gg 4ee\	.	.	.	.
*v	*v	*	*	*	*	*
!!LO:LB:g=original
=18	=18	=18	=18	=18	=18
8C/	8eee 8ccc 8gg\	.	2.r	.	.
8r	8r	.	.	.	.
2c 2G 2E 2C\	2ccc 2gg 2ee\	.	.	.	.
=19	=19	=19	=19	=19	=19
*^	*	*	*	*	*
.	.	(8qee/	.	(8qee/	.	.
!	!	!	!LO:DY:rj	!	!	!
4r	2.G\	8.dd\L)	p	8.dd\)	Pi-	.
.	.	16cc#X\Jk	.	16cc#X\	-ian-	.
4f 4Bn/	.	4dd\	.	4dd\	-stwo	.
4f 4B/	.	4g/	.	4g/	w_Ko-	.
*v	*v	*	*	*	*	*
=20	=20	=20	=20	=20	=20
8f 8Bn 8G\	8dd\	.	8dd\	-bie-	.
8r	8r	.	8r	.	.
2e 2c\	2cc\	.	2cc\	-cie,	.
=21	=21	=21	=21	=21	=21
*^	*	*	*	*	*
4r	2.C\	8.b-XL 8.g/	.	8.b-X/	Nie	.
.	.	16aJk 16f/	.	16a/	pa-	.
4c/	.	4g 4e/	.	4g/	-mię-	.
4c/	.	4cc 4e/	.	4cc\	-ta	.
!!LO:LB:g=original
=22	=22	=22	=22	=22	=22	=22
4r	2.F\	8.aL 8.f/	.	8.a/	o	.
.	.	16g#XJk 16e/	.	16g#X/	Koś-	.
4c 4A/	.	4a 4f/	.	4a/	-cie-	.
4c 4A/	.	4cc 4a\	.	4cc\	-le,	.
=23	=23	=23	=23	=23	=23	=23
4r	2.G\	8.bn\L	.	8.bn/	Wciąż	.
.	.	16a\Jk	.	16a/	ję-	.
4f 4d/	.	4b\	.	4b\	-zy-	.
4f 4Bn/	.	4dd\	.	4dd\	-kiem	.
*v	*v	*	*	*	*	*
=24	=24	=24	=24	=24	=24
.	(8qdd/	.	8qdd/	.	.
8e 8c\	8.cc\)	.	8.cc\	tyl-	.
8r	.	.	.	.	.
.	16bn\	.	16bn\	-ko	.
2e 2c\	4cc\	.	4cc\	mie-	.
.	4b-X 4g/	.	4b-X\	-le,	.
!	!	!	!	!	!LO:DY:b
.	.	f	.	.	f
=25	=25	=25	=25	=25	=25
4F 4FF/	8.aL 8.f/	.	8.a/	Na-	.
.	16gJk 16e/	.	16g/	-ple-	.
4c 4A 4F\	4a 4f/	.	4a/	-ćie	.
4c 4A 4F\	4ff 4a 4f\	.	4ff\	na-	.
!!LO:PB:g=original
=26	=26	=26	=26	=26	=26
4B- 4BB-\	(8ee\L	.	(8ee\L	-grze-	.
.	8dd\J)	.	8dd\J)	.	.
4d 4B-\	4g/	.	4g/	-szy,	.
4d 4Bn\	4g#X/	.	4r	.	.
=27	=27	=27	=27	=27	=27
.	(>8qa/	.	.	.	.
8c 8C\	8.cc\L)	.	8.cc\	Sza-	.
8r	.	.	.	.	.
.	16dd\Jk	.	16dd\	-ta-	.
4c 4A 4F 4C\	4cc\	.	4cc\	-na	.
4c 4A 4F 4C\	4a/	.	4a/	u-	.
=28	=28	=28	=28	=28	=28
4B- 4G 4E 4C\	8a/L	.	8a/L	-cie-	.
.	8g/J	.	8g/J	.	.
2A 2F\	2f/	.	2f/	-szy,	.
.	.	f	.	.	.
=29	=29	=29	=29	=29	=29
4C 4CC/	4ee 4cc 4g\	.	2.r	.	.
4c 4G 4E 4C\	4ccc 4ee 4cc\	.	.	.	.
4c 4G 4E 4C\	4gg 4ee 4cc\	.	.	.	.
!!LO:LB:g=original
=30	=30	=30	=30	=30	=30
8.cL 8.A 8.F\	8.ffL 8.cc\	.	2.r	.	.
16cJk 16G 16C\	16ggJk 16ee 16cc\	.	.	.	.
4c 4A 4F\	4aa 4ff 4cc\	.	.	.	.
4c 4A 4F\	4ff 4cc\	.	.	.	.
=31	=31	=31	=31	=31	=31
4c\	4ee 4cc\	.	2.r	.	.
4C/	4ccc 4ee 4cc\	.	.	.	.
4c 4G 4E 4C\	4ee 4cc 4g\	.	.	.	.
=32	=32	=32	=32	=32	=32
8c 8A 8F\	8ff 8cc 8a\	.	2.r	.	.
8r	8r	.	.	.	.
2c 2A 2F\	2f/	.	.	.	.
=33	=33	=33	=33	=33	=33
*^	*	*	*	*	*
!	!	!	!LO:DY:rj	!LO:TX:a:i:t=rall.	!	!LO:DY:rj:b
4r	2.C\	8.g/L	p	8.g/	W_do-	p
.	.	16f#X/Jk	.	16f#X/	-mu	.
4B- 4E/	.	4g/	.	4g/	dziat-	.
.	.	(8qddd-X/	.	.	.	.
4B- 4E/	.	4ccc\)	.	4cc\	-ki	.
=34	=34	=34	=34	=34	=34	=34
4r	2.C\	8.a-X/L	.	8.a-X/	pła-	.
!	!	!	!	!	!	!LO:HP:t=cresc&colon;
.	.	16b-/Jk	.	16b-/	-czą	<
4A-X 4F/	.	4cc\	.	4cc\	z_gło-	.
.	.	(8qddd-X/	.	.	.	.
4A- 4F/	.	4ccc\)	.	4f/	-du,	.
!!LO:LB:g=original
=35	=35	=35	=35	=35	=35	=35
4r	2.C\	8.g/L	.	8.g/	Na-	.
.	.	16f#X/Jk	.	16f#X/	-cier-	.
4B- 4E/	.	4g/	.	4g/	-pią	.
.	.	(8qddd-/	.	.	.	.
4B- 4E/	.	4ccc\)	.	4cc\	się	.
=36	=36	=36	=36	=36	=36	=36
4r	2.C\	8.a-X/L	.	8.a-X/	bie-	.
.	.	16b-/Jk	.	16b-/	-dy	.
4A-X 4F/	.	4cc\	.	4cc\	chło-	.
.	.	(8qddd-X/	.	.	.	.
4A- 4F/	.	4ccc\)	.	4f/	-du,	.
.	.	.	f	.	.	.
*v	*v	*	*	*	*	*
=37	=37	=37	=37	=37	=37
!	!	!	!LO:TX:a:i:t=a tempo	!	!LO:DY:rj:a
4F 4FF/	8.ffL 8.a 8.f\	.	8.ff\	Gos-	f
.	16eeJk 16cc\	.	16ee\	-po-	.
4F 4FF/	4dd 4b-\	.	4dd\	-darz	.
4F 4FF/	4cc 4a\	.	4cc\	pra-	.
=38	=38	=38	=38	=38	=38
8.B-L 8.BB-\	8.ddL 8.b-\	.	(8.dd\L	-cu-	.
16AJk 16AA\	16ff#XJk 16dd 16cc\	.	16ff#X\Jk)	.	.
4G 4GG/	4gg 4dd 4b-\	.	4gg\	-je,	.
4r	4r	.	4r	.	.
!!LO:LB:g=original
=39	=39	=39	=39	=39	=39
*^	*	*	*	*	*
.	.	(8qa/	.	.	.	.
!	!	!	!LO:DY:rj	!	!	!LO:DY:rj:a
4r	2.C\	8.cc\L)	p	8.cc\	A	p
.	.	16dd\Jk	.	16dd\	żo-	.
4c 4A 4F\	.	4cc\	.	4cc\	-na	.
4c 4A 4F\	.	4a/	.	4a/	mar-	.
*v	*v	*	*	*	*	*
=40	=40	=40	=40	=40	=40
4B- 4E 4C\	8a/L	.	8a/L	-nu-	.
.	8g/J	.	8g/J	.	.
4A 4F\	4f/	.	4f/	-je.	.
4r	(8.cc\L	.	4r	.	.
.	32dd\LL	.	.	.	.
.	32ee\JJJ)	.	.	.	.
.	.	f	.	.	.
=41	=41	=41	=41	=41	=41
4F 4FF/	8.ffL 8.a 8.f\	.	2.r	.	.
.	16eeJk 16cc\	.	.	.	.
4F 4FF/	4dd 4b-\	.	.	.	.
4F 4FF/	4cc 4a\	.	.	.	.
=42	=42	=42	=42	=42	=42
8.B-L 8.BB-\	8.ddL 8.b-\	.	2.r	.	.
16AJk 16AA\	16ff#XJk 16dd 16cc\	.	.	.	.
4G 4GG/	4gg 4dd 4b-\	.	.	.	.
4r	4r	.	.	.	.
!!LO:PB:g=original
=43	=43	=43	=43	=43	=43
*^	*	*	*	*	*
.	.	(8qa/	.	.	.	.
!	!	!	!LO:DY:rj	!	!	!
4r	2.C\	8.cc\L)	p	8.cc\	A	.
.	.	16dd\Jk	.	16dd\	żo-	.
4c 4A 4F/	.	4cc\	.	4cc\	-na	.
4c 4A 4F/	.	4a/	.	4a/	mar-	.
*v	*v	*	*	*	*	*
=44	=44	=44	=44	=44	=44
(4B- 4E (4C\	(8a/L	.	8a/L	-nu-	.
.	8g/J	.	8g/J	.	.
8A 8F\))	8f/L)	.	4f/	-je	.
(8F\L	(8f/	.	.	.	.
8C#X\	8e/	.	4r	.	.
8D\J	8f/J	.	.	.	.
=45	=45	=45	=45	=45	=45
8.C#X/L)	8.eL 8.A/)	.	8.e/	Nos	.
16C#Jk 16CC#X/	16aJk 16e 16A/	.	16a/	pi-	.
4C# 4CC#/	4a 4e 4A/	.	4a/	-ia-	.
4C# 4CC#/	4g 4e 4A/	.	4g/	-cki,	.
=46	=46	=46	=46	=46	=46
*	*^	*	*	*	*
2D 2DD/	8.f/L	2A\	.	8.f/	twarz	.
.	16e/Jk	.	.	16e/	czer-	.
.	4d/	.	.	4d/	-wo-	.
(8D/L	4f 4A/	4ryy	.	4f/	-na	.
8C/J)	.	.	.	.	.	.
*	*v	*v	*	*	*	*
!!LO:LB:g=original
=47	=47	=47	=47	=47	=47
8.BBn/L	8.dL 8.G/	.	8.d/	sza-	.
16BBJk 16BBBn/	16gJk 16d 16G/	.	16g/	-ta	.
4BB 4BBB/	4g 4d 4G/	.	4g/	zdar-	.
4BB 4BBB/	4f 4d 4G/	.	4f/	-ta	.
=48	=48	=48	=48	=48	=48
*	*^	*	*	*	*
2C 2CC/	8.e/L	2G\	.	8.e/	u-	.
.	16d/Jk	.	.	16d/	-smo-	.
.	4c/	.	.	4c/	-lo-	.
4C 4CC/	4e 4G/	4ryy	.	4e/	-na,	.
*	*v	*v	*	*	*	*
=49	=49	=49	=49	=49	=49
.	.	.	8qf/	.	.
!	!	!LO:DY:rj	!	!	!LO:DY:rj:a
8.FL 8.FF/	8.ffL 8.cc 8.a 8.f/	f	8.ff\	Oj	f
16FJk 16FF/	16eeJk 16cc/	.	16ee\	naj-	.
4F 4FF/	4dd 4b-/	.	4dd\	-brzyd-	.
4F 4FF/	4cc 4a/	.	4cc\	-sze	.
=50	=50	=50	=50	=50	=50
.	(8qee/	.	(8qee/	.	.
*	*^	*	*	*	*
8B- 8BB-\	8dd\)	4ryy	.	8dd\)	w_świe-	.
8r	8r	.	.	8r	.	.
4B-\	4g/	2d\	.	4g/	-cie	.
4Bn\	4g#X/	.	.	4r	.	.
*	*v	*v	*	*	*	*
!!LO:LB:g=original
=51	=51	=51	=51	=51	=51
!	!	!LO:DY:rj	!	!	!
.	(16qqf/LL	p	.	.	.
.	16qqa/JJ)	.	.	.	.
4c\	8.cc\L	.	8.cc\	Pi-	.
.	16dd\Jk	.	16dd\	-ian-	.
4c 4A 4F 4C\	4cc\	.	4cc\	-stwo	.
4c 4A 4F 4C\	4a/	.	4f/	w_Ko-	.
=52	=52	=52	=52	=52	=52
4B- 4E 4C\	8a/L	.	8a/L	-bie-	.
.	8g/J	.	8g/J	.	.
4A 4F\	4f/	.	4f/	-cie.	.
!	!	!LO:DY:rj	!	!	!
4F 4FF/	4ff 4cc 4a\	f	4r	.	.
=53	=53	=53	=53	=53	=53
4c 4C\	4ee 4cc 4g\	.	2.r	.	.
4C/	4ccc 4ee 4cc\	.	.	.	.
4c 4G 4E 4C\	4ee 4cc 4g\	.	.	.	.
=54	=54	=54	=54	=54	=54
8.cL 8.A 8.F\	8.ffL 8.cc 8.a\	.	2.r	.	.
16cJk 16G 16C\	16ggJk 16ee 16cc\	.	.	.	.
4c 4A 4F\	4aa 4ff 4cc\	.	.	.	.
4c 4F\	4ff 4cc 4a\	.	.	.	.
!!LO:LB:g=original
=55	=55	=55	=55	=55	=55
4c 4C\	4ee 4cc 4g\	.	2.r	.	.
4C/	4ccc 4ee 4cc\	.	.	.	.
4c 4G 4E 4C\	4ee 4cc 4g\	.	.	.	.
=56	=56	=56	=56	=56	=56
8c 8A 8F\	8ff 8cc 8a\	.	2.r	.	.
8r	8r	.	.	.	.
2F\	2f/	.	.	.	.
==	==	==	==	==	==
*-	*-	*-	*-	*-	*-
!!!system-decoration: <s1>{(s2,s3)}
!!!RDF**kern: > = above
!!!RDF**kern: < = below
!!!ENC: Andrzej Kubiczek
!!!END: 2021-06-05
!!!ENC: Berenika Jozajtis
!!!END: 2021-05-19
